X:47
T: O SAG MIR AN, FRAU MUTTER LIEB
N: Z0048
O: Europa, Mitteleuropa, Deutschland, Herzogtum Berg
R: Sagen - Lied, Romanze
M: 6/8
L: 1/16
K: D
DE | =F4E2D4AB | =c4B2A4
A2 | G4A2G2=F2E2 | =F4G2A4
A2 | _B4=c2d4A2 | _B2A2^G2A4
E2 | =F4G2A2G2F2 | G2=F2E2D4

